packages/katcn/src/icons/svg/explore-solid.svg

<svg width="24" height="24" viewBox="0 0 24 24" fill="none" xmlns="http://www.w3.org/2000/svg">
<path d="M12 2C6.5 2 2 6.5 2 12C2 17.5 6.5 22 12 22C17.5 22 22 17.5 22 12C22 6.5 17.5 2 12 2Z" fill="black"/>
<path d="M16 8.00001C15.7 7.70001 15.3 7.60001 15 7.80001L11.4 9.00001C10.2 9.40001 9.4 10.2 9 11.4L7.8 15C7.7 15.4 7.8 15.7 8 16C8.2 16.2 8.4 16.3 8.7 16.3C8.8 16.3 8.9 16.3 9 16.2L12.6 15C13.7 14.6 14.6 13.7 15 12.6L16.2 9.00001C16.3 8.70001 16.2 8.30001 16 8.00001Z" fill="white"/>
</svg>

<svg xmlns="http://www.w3.org/2000/svg" fill="none" viewBox="0 0 24 24"><path fill="#000" d="M12 2C6.5 2 2 6.5 2 12s4.5 10 10 10 10-4.5 10-10S17.5 2 12 2"/><path fill="#fff" d="M16 8c-.3-.3-.7-.4-1-.2L11.4 9q-1.8.6-2.4 2.4L7.8 15c-.1.4 0 .7.2 1 .2.2.4.3.7.3.1 0 .2 0 .3-.1l3.6-1.2c1.1-.4 2-1.3 2.4-2.4L16.2 9c.1-.3 0-.7-.2-1"/></svg>
